Numix-Circle/48x48/apps/paper_green.svg

<svg xmlns="http://www.w3.org/2000/svg" viewBox="0 0 48 48"><defs><clipPath><g transform="translate(0,-1004.3622)"><path d="m -24 13 c 0 1.105 -0.672 2 -1.5 2 -0.828 0 -1.5 -0.895 -1.5 -2 0 -1.105 0.672 -2 1.5 -2 0.828 0 1.5 0.895 1.5 2 z" transform="matrix(15.333333,0,0,11.5,414.99999,878.8622)" fill="#1890d0"/></g></clipPath><clipPath><g transform="translate(0,-1004.3622)"><path d="m -24 13 c 0 1.105 -0.672 2 -1.5 2 -0.828 0 -1.5 -0.895 -1.5 -2 0 -1.105 0.672 -2 1.5 -2 0.828 0 1.5 0.895 1.5 2 z" transform="matrix(15.333333,0,0,11.5,414.99999,878.8622)" fill="#1890d0"/></g></clipPath><clipPath clipPathUnits="userSpaceOnUse"><rect width="24.09" height="19.02" x="3.524" y="18.09" opacity="0.1" fill="#000" fill-rule="nonzero" stroke="none" fill-opacity="1"/></clipPath></defs><g><path d="m 36.31 5 c 5.859 4.062 9.688 10.831 9.688 18.5 c 0 12.426 -10.07 22.5 -22.5 22.5 c -7.669 0 -14.438 -3.828 -18.5 -9.688 c 1.037 1.822 2.306 3.499 3.781 4.969 c 4.085 3.712 9.514 5.969 15.469 5.969 c 12.703 0 23 -10.298 23 -23 c 0 -5.954 -2.256 -11.384 -5.969 -15.469 c -1.469 -1.475 -3.147 -2.744 -4.969 -3.781 z m 4.969 3.781 c 3.854 4.113 6.219 9.637 6.219 15.719 c 0 12.703 -10.297 23 -23 23 c -6.081 0 -11.606 -2.364 -15.719 -6.219 c 4.16 4.144 9.883 6.719 16.219 6.719 c 12.703 0 23 -10.298 23 -23 c 0 -6.335 -2.575 -12.06 -6.719 -16.219 z" opacity="0.05"/><path d="m 41.28 8.781 c 3.712 4.085 5.969 9.514 5.969 15.469 c 0 12.703 -10.297 23 -23 23 c -5.954 0 -11.384 -2.256 -15.469 -5.969 c 4.113 3.854 9.637 6.219 15.719 6.219 c 12.703 0 23 -10.298 23 -23 c 0 -6.081 -2.364 -11.606 -6.219 -15.719 z" opacity="0.1"/><path d="m 31.25 2.375 c 8.615 3.154 14.75 11.417 14.75 21.13 c 0 12.426 -10.07 22.5 -22.5 22.5 c -9.708 0 -17.971 -6.135 -21.12 -14.75 a 23 23 0 0 0 44.875 -7 a 23 23 0 0 0 -16 -21.875 z" opacity="0.2"/></g><g fill="#a2e193" fill-opacity="1"><path d="m 24 1 c 12.703 0 23 10.297 23 23 c 0 12.703 -10.297 23 -23 23 -12.703 0 -23 -10.297 -23 -23 0 -12.703 10.297 -23 23 -23 z"/></g><path d="m 11 14 0 9 0 12 1 0 0 1 26 0 0 -1 1 0 0 -12 0 -9 -28 0 z" opacity="0.1" fill="#000" fill-rule="nonzero" stroke="none" fill-opacity="1"/><g><path d="m 40.03 7.531 c 3.712 4.084 5.969 9.514 5.969 15.469 0 12.703 -10.297 23 -23 23 c -5.954 0 -11.384 -2.256 -15.469 -5.969 4.178 4.291 10.01 6.969 16.469 6.969 c 12.703 0 23 -10.298 23 -23 0 -6.462 -2.677 -12.291 -6.969 -16.469 z" opacity="0.1"/></g><path d="m 10 22 l 0 12 l 1 0 l 0 1 l 26 0 l 0 -1 l 1 0 l 0 -12 l -28 0 z" opacity="1" fill="#072600" fill-rule="nonzero" stroke="none" fill-opacity="1"/><rect width="24" height="1" x="12" y="33" opacity="1" fill="#51bf3b" fill-rule="nonzero" stroke="none" fill-opacity="1"/><rect width="28" height="9" x="10" y="13" opacity="1" fill="#136600" fill-rule="nonzero" stroke="none" fill-opacity="1"/><rect width="26" height="19" x="11" y="14" opacity="1" fill="#d1e3ca" fill-rule="nonzero" stroke="none" fill-opacity="1"/><path d="m 13 15 l 0 3 l 0 1 l 1.5 0 l 0 2 l -2.5 0 l 0 1 l 24 0 l 0 -1 l -1 0 l 0 -2 l -1 0 l 0 2 l -2 0 l 0 -2 l 2 0 l 0 -1 l -2 0 l 0 -2 l 2 0 l 0 -1 l -2 0 l -1 0 l 0 6 l -2 0 l 0 -2 l -1 0 l 0 2 l -2 0 l 0 -2 l 2 0 l 0 -1 l -2 0 l 0 -2 l 2 0 l 0 -1 l -2 0 l -1 0 l 0 6 l -2 0 l 0 -6 l -4 0 l 0 6 l -3.5 0 l 0 -2 l 1.5 0 l 0 -1 l 0 -3 l -1 0 l 0 3 l -2 0 l 0 -3 l -1 0 z m 15 1 l 0 2 l 1 0 l 0 -2 l -1 0 z m 6 0 l 0 2 l 1 0 l 0 -2 l -1 0 z m -14 0 l 2 0 l 0 2 l -2 0 l 0 -2 z m 0 3 l 2 0 l 0 2 l -2 0 l 0 -2 z" opacity="1" fill="#353535" fill-rule="nonzero" stroke="none" fill-opacity="1"/><rect width="12" height="1" x="12" y="25" fill="#353535" fill-rule="nonzero" stroke="none" fill-opacity="1"/><rect width="12" height="1" x="12" y="27" fill="#353535" fill-rule="nonzero" stroke="none" fill-opacity="1"/><rect width="12" height="1" x="12" y="29" fill="#353535" fill-rule="nonzero" stroke="none" fill-opacity="1"/><rect width="12" height="1" x="12" y="31" fill="#353535" fill-rule="nonzero" stroke="none" fill-opacity="1"/><path d="m 25 25 0 7 10 0 0 -7 z m 1 1 8 0 0 5 -8 0 z" fill="#353535" fill-rule="nonzero" stroke="none" fill-opacity="1"/></svg>

<?xml version="1.0" encoding="UTF-8" standalone="no"?>
<svg
   xmlns:dc="http://purl.org/dc/elements/1.1/"
   xmlns:cc="http://creativecommons.org/ns#"
   xmlns:rdf="http://www.w3.org/1999/02/22-rdf-syntax-ns#"
   xmlns:svg="http://www.w3.org/2000/svg"
   xmlns="http://www.w3.org/2000/svg"
   xmlns:sodipodi="http://sodipodi.sourceforge.net/DTD/sodipodi-0.dtd"
   xmlns:inkscape="http://www.inkscape.org/namespaces/inkscape"
   viewBox="0 0 48 48"
   id="svg2"
   version="1.1"
   inkscape:version="0.48.5 r10040"
   width="100%"
   height="100%"
   sodipodi:docname="paper_green.svg">
  <metadata
     id="metadata73">
    <rdf:RDF>
      <cc:Work
         rdf:about="">
        <dc:format>image/svg+xml</dc:format>
        <dc:type
           rdf:resource="http://purl.org/dc/dcmitype/StillImage" />
      </cc:Work>
    </rdf:RDF>
  </metadata>
  <sodipodi:namedview
     pagecolor="#ffffff"
     bordercolor="#666666"
     borderopacity="1"
     objecttolerance="10"
     gridtolerance="10"
     guidetolerance="10"
     inkscape:pageopacity="0"
     inkscape:pageshadow="2"
     inkscape:window-width="1280"
     inkscape:window-height="998"
     id="namedview71"
     showgrid="false"
     inkscape:zoom="4.9166667"
     inkscape:cx="-28.586879"
     inkscape:cy="59.41966"
     inkscape:window-x="0"
     inkscape:window-y="0"
     inkscape:window-maximized="1"
     inkscape:current-layer="svg2">
    <inkscape:grid
       type="xygrid"
       id="grid3067" />
  </sodipodi:namedview>
  <defs
     id="defs4">
    <linearGradient
       id="linearGradient3764"
       x1="1"
       x2="47"
       gradientUnits="userSpaceOnUse"
       gradientTransform="matrix(0,-1,1,0,-1.5e-6,47.999998)">
      <stop
         stop-color="#d43c3c"
         stop-opacity="1"
         id="stop7" />
      <stop
         offset="1"
         stop-color="#d84d4d"
         stop-opacity="1"
         id="stop9" />
    </linearGradient>
    <clipPath
       id="clipPath-525193149">
      <g
         transform="translate(0,-1004.3622)"
         id="g12">
        <path
           d="m -24 13 c 0 1.105 -0.672 2 -1.5 2 -0.828 0 -1.5 -0.895 -1.5 -2 0 -1.105 0.672 -2 1.5 -2 0.828 0 1.5 0.895 1.5 2 z"
           transform="matrix(15.333333,0,0,11.5,414.99999,878.8622)"
           fill="#1890d0"
           id="path14" />
      </g>
    </clipPath>
    <clipPath
       id="clipPath-531630903">
      <g
         transform="translate(0,-1004.3622)"
         id="g17">
        <path
           d="m -24 13 c 0 1.105 -0.672 2 -1.5 2 -0.828 0 -1.5 -0.895 -1.5 -2 0 -1.105 0.672 -2 1.5 -2 0.828 0 1.5 0.895 1.5 2 z"
           transform="matrix(15.333333,0,0,11.5,414.99999,878.8622)"
           fill="#1890d0"
           id="path19" />
      </g>
    </clipPath>
    <clipPath
       clipPathUnits="userSpaceOnUse"
       id="clipPath3063">
      <rect
         style="opacity:0.1;fill:#000000;fill-opacity:1;fill-rule:nonzero;stroke:none"
         id="rect3065"
         width="24.089569"
         height="19.019974"
         x="3.5235491"
         y="18.085787" />
    </clipPath>
  </defs>
  <g
     id="g21">
    <path
       d="m 36.31 5 c 5.859 4.062 9.688 10.831 9.688 18.5 c 0 12.426 -10.07 22.5 -22.5 22.5 c -7.669 0 -14.438 -3.828 -18.5 -9.688 c 1.037 1.822 2.306 3.499 3.781 4.969 c 4.085 3.712 9.514 5.969 15.469 5.969 c 12.703 0 23 -10.298 23 -23 c 0 -5.954 -2.256 -11.384 -5.969 -15.469 c -1.469 -1.475 -3.147 -2.744 -4.969 -3.781 z m 4.969 3.781 c 3.854 4.113 6.219 9.637 6.219 15.719 c 0 12.703 -10.297 23 -23 23 c -6.081 0 -11.606 -2.364 -15.719 -6.219 c 4.16 4.144 9.883 6.719 16.219 6.719 c 12.703 0 23 -10.298 23 -23 c 0 -6.335 -2.575 -12.06 -6.719 -16.219 z"
       opacity="0.05"
       id="path23" />
    <path
       d="m 41.28 8.781 c 3.712 4.085 5.969 9.514 5.969 15.469 c 0 12.703 -10.297 23 -23 23 c -5.954 0 -11.384 -2.256 -15.469 -5.969 c 4.113 3.854 9.637 6.219 15.719 6.219 c 12.703 0 23 -10.298 23 -23 c 0 -6.081 -2.364 -11.606 -6.219 -15.719 z"
       opacity="0.1"
       id="path25" />
    <path
       d="m 31.25 2.375 c 8.615 3.154 14.75 11.417 14.75 21.13 c 0 12.426 -10.07 22.5 -22.5 22.5 c -9.708 0 -17.971 -6.135 -21.12 -14.75 a 23 23 0 0 0 44.875 -7 a 23 23 0 0 0 -16 -21.875 z"
       opacity="0.2"
       id="path27" />
  </g>
  <g
     id="g33" />
  <g
     id="g29"
     style="fill:#a2e193;fill-opacity:1">
    <path
       d="m 24 1 c 12.703 0 23 10.297 23 23 c 0 12.703 -10.297 23 -23 23 -12.703 0 -23 -10.297 -23 -23 0 -12.703 10.297 -23 23 -23 z"
       fill="url(#linearGradient3764)"
       fill-opacity="1"
       id="path31"
       style="fill:#a2e193;fill-opacity:1" />
  </g>
  <path
     style="fill:#000000;fill-opacity:1;fill-rule:nonzero;stroke:none;opacity:0.1"
     d="m 11,14 0,9 0,12 1,0 0,1 26,0 0,-1 1,0 0,-12 0,-9 -28,0 z"
     id="path3980"
     inkscape:connector-curvature="0" />
  <g
     id="g67">
    <path
       d="m 40.03 7.531 c 3.712 4.084 5.969 9.514 5.969 15.469 0 12.703 -10.297 23 -23 23 c -5.954 0 -11.384 -2.256 -15.469 -5.969 4.178 4.291 10.01 6.969 16.469 6.969 c 12.703 0 23 -10.298 23 -23 0 -6.462 -2.677 -12.291 -6.969 -16.469 z"
       opacity="0.1"
       id="path69" />
  </g>
  <path
     style="opacity:1;fill:#072600;fill-opacity:1;fill-rule:nonzero;stroke:none"
     d="M 10 22 L 10 34 L 11 34 L 11 35 L 37 35 L 37 34 L 38 34 L 38 22 L 10 22 z "
     id="rect3071" />
  <rect
     style="opacity:1;fill:#51bf3b;fill-opacity:1;fill-rule:nonzero;stroke:none"
     id="rect3075"
     width="24"
     height="1"
     x="12"
     y="33" />
  <rect
     style="opacity:1;fill:#136600;fill-opacity:1;fill-rule:nonzero;stroke:none"
     id="rect3069"
     width="28"
     height="9"
     x="10"
     y="13" />
  <rect
     style="opacity:1;fill:#d1e3ca;fill-opacity:1;fill-rule:nonzero;stroke:none"
     id="rect3073"
     width="26"
     height="19"
     x="11"
     y="14" />
  <path
     style="opacity:1;fill:#353535;fill-opacity:1;fill-rule:nonzero;stroke:none"
     d="M 13 15 L 13 18 L 13 19 L 14.5 19 L 14.5 21 L 12 21 L 12 22 L 36 22 L 36 21 L 35 21 L 35 19 L 34 19 L 34 21 L 32 21 L 32 19 L 34 19 L 34 18 L 32 18 L 32 16 L 34 16 L 34 15 L 32 15 L 31 15 L 31 21 L 29 21 L 29 19 L 28 19 L 28 21 L 26 21 L 26 19 L 28 19 L 28 18 L 26 18 L 26 16 L 28 16 L 28 15 L 26 15 L 25 15 L 25 21 L 23 21 L 23 15 L 19 15 L 19 21 L 15.5 21 L 15.5 19 L 17 19 L 17 18 L 17 15 L 16 15 L 16 18 L 14 18 L 14 15 L 13 15 z M 28 16 L 28 18 L 29 18 L 29 16 L 28 16 z M 34 16 L 34 18 L 35 18 L 35 16 L 34 16 z M 20 16 L 22 16 L 22 18 L 20 18 L 20 16 z M 20 19 L 22 19 L 22 21 L 20 21 L 20 19 z "
     id="rect3847" />
  <rect
     style="fill:#353535;fill-opacity:1;fill-rule:nonzero;stroke:none"
     id="rect3965"
     width="12"
     height="1"
     x="12"
     y="25" />
  <rect
     style="fill:#353535;fill-opacity:1;fill-rule:nonzero;stroke:none"
     id="rect3967"
     width="12"
     height="1"
     x="12"
     y="27" />
  <rect
     style="fill:#353535;fill-opacity:1;fill-rule:nonzero;stroke:none"
     id="rect3969"
     width="12"
     height="1"
     x="12"
     y="29" />
  <rect
     style="fill:#353535;fill-opacity:1;fill-rule:nonzero;stroke:none"
     id="rect3971"
     width="12"
     height="1"
     x="12"
     y="31" />
  <path
     style="fill:#353535;fill-opacity:1;fill-rule:nonzero;stroke:none"
     d="m 25,25 0,7 10,0 0,-7 z m 1,1 8,0 0,5 -8,0 z"
     id="rect3973"
     inkscape:connector-curvature="0"
     sodipodi:nodetypes="cccccccccc" />
</svg>
